X: 7
M:2/4
L:1/16
K:D
vFAAB AFED | FAAB ABde | fBBA Bcdf | fBBA BcdB |
|:ug2|\
fgag fd"4"{e}d2 | fdad fe{e}d2 | vefga bgef | gebe geeg |
fdad bdad | defd edBd | fBBA BcdB |1 AFEF D2 :|2 AFEF D2z2 |]


